www/assets/icons/settings_power.svg

<svg xmlns="http://www.w3.org/2000/svg" width="24" height="24" viewBox="0 0 24 24" fill='currentColor'><path d="M7 23h2v-2H7zm4 0h2v-2h-2zm2-22h-2v10h2zm3.56 2.44-1.45 1.45A5.97 5.97 0 0 1 18 10c0 3.31-2.69 6-6 6s-6-2.69-6-6c0-2.17 1.16-4.06 2.88-5.12L7.44 3.44A7.96 7.96 0 0 0 4 10c0 4.42 3.58 8 8 8s8-3.58 8-8c0-2.72-1.36-5.12-3.44-6.56M15 23h2v-2h-2z"/></svg>

<svg width="24" height="24" viewBox="0 0 24 24" xmlns="http://www.w3.org/2000/svg" fill='currentColor'><path d="M7 23H9V21H7V23ZM11 23H13V21H11V23ZM13 1H11V11H13V1ZM16.56 3.44L15.11 4.89C16.84 5.94 18 7.83 18 10C18 13.31 15.31 16 12 16C8.69 16 6 13.31 6 10C6 7.83 7.16 5.94 8.88 4.88L7.44 3.44C5.36 4.88 4 7.28 4 10C4 14.42 7.58 18 12 18C16.42 18 20 14.42 20 10C20 7.28 18.64 4.88 16.56 3.44ZM15 23H17V21H15V23Z"/></svg>
